X: 7
T: Pauline Conneely's
T: Haven't You Got a Vase
R: Reel
D: Trian II
Z: Adrian Scahill
M: 4/4
L: 1/8
K: D
A,2EA, G,B,DG | FDD2 ADFD | EDCA, G,B,DG | FDAD BDADE |
A,2EA, G,B,DG | FDD2 ADFA | BcAG (3FED CE | DFAD GFDF :|
cAA2 EDCA | cAA Bcdc | dGGF GEDe | dGG2 BcdB |
cAA2 EDCDF | EDCB, A,CEA | BDAD (3GFG ED |1 CEAB cABd :|2 CEAB cAA2 |]
